Newaita-dark/apps/32/libreoffice-math.svg

<svg height="32" viewBox="0 0 32 32" width="32" xmlns="http://www.w3.org/2000/svg" xmlns:xlink="http://www.w3.org/1999/xlink"><linearGradient id="a" gradientTransform="matrix(.0744119 0 0 .062506 -2.630336 13.438785)" gradientUnits="userSpaceOnUse" x1="254" x2="254" y1="233.5" y2="254.666672"><stop offset="0" stop-opacity=".27451"/><stop offset="1" stop-opacity="0"/></linearGradient><linearGradient id="b"><stop offset="0" stop-opacity=".313726"/><stop offset=".222222" stop-opacity=".27451"/><stop offset="1" stop-opacity="0"/></linearGradient><radialGradient id="c" cx="450.908936" cy="189.579361" gradientTransform="matrix(.00000017 -.0781325 -.140638 -.0000001 50.476849 63.595333)" gradientUnits="userSpaceOnUse" r="21.166656" xlink:href="#b"/><radialGradient id="d" cx="450.908936" cy="189.579361" gradientTransform="matrix(-.00000017 .0781325 .140638 .0000001 -18.723815 -7.527479)" gradientUnits="userSpaceOnUse" r="21.166656" xlink:href="#b"/><radialGradient id="e" cx="450.908936" cy="189.579361" gradientTransform="matrix(-.00000017 -.0781325 .140638 -.0000001 -18.723815 63.595333)" gradientUnits="userSpaceOnUse" r="21.166656" xlink:href="#b"/><radialGradient id="f" cx="450.908936" cy="189.579361" gradientTransform="matrix(.00000017 .0781325 -.140638 .0000001 50.476847 -7.527479)" gradientUnits="userSpaceOnUse" r="21.166656" xlink:href="#b"/><linearGradient id="g"><stop offset="0" stop-color="#78909c"/><stop offset="1" stop-color="#90a4ae"/></linearGradient><linearGradient id="h" gradientUnits="userSpaceOnUse" x1="15.87648" x2="15.87648" xlink:href="#g" y1="28.03386419623" y2="2.89610343548"/><linearGradient id="i" gradientUnits="userSpaceOnUse" x1="15.87648" x2="15.87648" y1="26.71082419623" y2="4.21914343548"><stop offset="0" stop-color="#e0e0e0"/><stop offset="1" stop-color="#eee"/></linearGradient><linearGradient id="j" gradientUnits="userSpaceOnUse" x1="15.47592850003" x2="15.47592850003" xlink:href="#g" y1="21.37003599994" y2="8.80112200002"/><path d="m7.609375 28.035156h16.535156v1.320313h-16.535156zm0 0" fill="url(#a)"/><path d="m24.144531 28.035156h2.648438v-1.324218h-2.648438zm0 0" fill="url(#c)"/><path d="m7.609375 28.035156h-2.648437v1.320313h2.648437zm0 0" fill="url(#d)"/><path d="m7.609375 28.035156h-2.648437v-1.324218h2.648437zm0 0" fill="url(#e)"/><path d="m24.144531 28.035156h2.648438v1.320313h-2.648438zm0 0" fill="url(#f)"/><path d="m6.613281 2.894531c-.730469 0-1.320312.589844-1.320312 1.324219v22.492188c0 .734374.589843 1.324218 1.320312 1.324218h18.523438c.734375 0 1.324219-.589844 1.324219-1.324218v-15.054688l-8.761719-8.761719zm13.894531 0 5.953126 5.957031v-4.632812c0-.734375-.589844-1.324219-1.324219-1.324219zm0 0" fill="url(#h)"/><path d="m7.277344 4.21875c-.367188 0-.664063.296875-.664063.660156v21.171875c0 .363281.296875.660157.664063.660157h17.199218c.367188 0 .660157-.296876.660157-.660157v-13.894531l-7.9375-7.9375zm0 0" fill="url(#i)"/><path d="m6.613281 2.894531c-.730469 0-1.320312.589844-1.320312 1.324219v.332031c0-.734375.589843-1.324219 1.320312-1.324219h11.085938l8.761719 8.761719v-.332031l-8.761719-8.761719zm13.894531 0 .332032.332031h4.296875c.734375 0 1.324219.589844 1.324219 1.324219v-.332031c0-.734375-.589844-1.324219-1.324219-1.324219zm0 0" fill="#fff" fill-opacity=".392157"/><path d="m7.277344 4.21875c-.367188 0-.664063.296875-.664063.660156v.496094c0-.363281.296875-.660156.664063-.660156h9.921875l7.9375 7.9375v-.496094l-7.9375-7.9375zm0 0" fill-opacity=".235294"/><path d="m6.613281 26.074219v.3125c0 .367187.296875.660156.664063.660156h17.199218c.367188 0 .660157-.292969.660157-.660156v-.3125c0 .367187-.292969.660156-.660157.660156h-17.199218c-.367188 0-.664063-.292969-.664063-.660156zm0 0" fill="#fff" fill-opacity=".392157"/><path d="m440.036742 255.093763c-22.202605 0-40.153648 17.951043-40.153648 39.91745v1280.192776c0 21.966407 17.951043 39.91745 40.153648 39.91745h1039.979482c22.202605 0 39.91745-17.951043 39.91745-39.91745v-840.156034l-479.954192-479.954192zm0 0" fill="none" stroke="#212121" stroke-linecap="round" stroke-linejoin="round" stroke-width="11.338583" transform="scale(.016538)"/><path d="m20.507812 2.894531 5.953126 5.957031v-.324218l-5.632813-5.632813zm-15.214843 23.492188v.324219c0 .734374.589843 1.324218 1.320312 1.324218h18.523438c.734375 0 1.324219-.589844 1.324219-1.324218v-.324219c0 .734375-.589844 1.324219-1.324219 1.324219h-18.523438c-.730469 0-1.320312-.589844-1.320312-1.324219zm0 0" fill-opacity=".235294"/><path d="m399.883094 175.022665c-44.169013 0-79.8349 35.665888-79.8349 80.071098v1360.027676c0 44.405211 35.665887 80.071098 79.8349 80.071098h1120.05058c44.40521 0 80.071098-35.665887 80.071098-80.071098v-910.306819l-529.791955-529.791955zm840.156034 0 359.965644 360.201842v-280.130744c0-44.40521-35.665888-80.071098-80.071098-80.071098zm0 0" fill="none" stroke="#212121" stroke-linecap="round" stroke-linejoin="round" stroke-width="11.338583" transform="scale(.016538)"/><g fill-rule="evenodd"><path d="m15.660156 10.457031c-.316406 0-.589844.222657-.648437.535157l-1.089844 5.664062-.597656-2.390625c-.070313-.296875-.335938-.5-.640625-.503906h-1.320313c-.371093-.003907-.671875.292969-.671875.664062 0 .367188.300782.664063.671875.660157h.804688l1.199219 4.792968c.171874.683594 1.15625.65625 1.289062-.039062l1.550781-8.0625h4.085938c.367187.007812.671875-.289063.671875-.660156 0-.371094-.304688-.667969-.671875-.660157zm1.644532 4.621094c-.53125.003906-.84375.597656-.542969 1.035156l1.078125 1.617188-1.078125 1.621093c-.207031.300782-.128907.71875.179687.921876.304688.203124.71875.117187.917969-.191407l.773437-1.15625.773438 1.15625c.203125.308594.617188.394531.921875.191407.308594-.203126.386719-.621094.179687-.921876l-1.078124-1.621093 1.078124-1.617188c.304688-.445312-.023437-1.050781-.5625-1.035156-.21875.007813-.417968.121094-.539062.304687l-.773438 1.15625-.773437-1.15625c-.121094-.191406-.332031-.304687-.554687-.304687zm0 0" fill="url(#j)"/><path d="m15.660156 10.457031c-.316406 0-.589844.222657-.648437.535157l-1.089844 5.664062-.597656-2.390625c-.070313-.296875-.335938-.503906-.640625-.503906h-1.320313c-.371093-.003907-.671875.292969-.671875.664062 0 .0625.011719.125.027344.179688.078125-.277344.335938-.480469.644531-.476563h1.320313c.304687 0 .570312.207032.640625.5l.597656 2.390625 1.089844-5.664062c.058593-.308594.332031-.535157.648437-.535157h4.632813c.304687-.007812.566406.199219.648437.480469.015625-.058593.023438-.121093.023438-.183593 0-.371094-.304688-.667969-.671875-.660157zm1.644532 4.621094c-.457032.003906-.753907.441406-.632813.84375.074219-.265625.3125-.476563.632813-.480469.222656 0 .433593.113282.554687.304688l.773437 1.160156.773438-1.160156c.121094-.183594.320312-.296875.539062-.304688.324219-.007812.574219.210938.652344.480469.121094-.40625-.1875-.855469-.652344-.84375-.21875.007813-.417968.121094-.539062.304687l-.773438 1.15625-.773437-1.15625c-.121094-.191406-.332031-.304687-.554687-.304687zm.414062 2.835937-.957031 1.4375c-.117188.167969-.144531.371094-.089844.554688.019531-.066406.046875-.132812.089844-.191406l1.078125-1.617188zm1.832031 0-.121093.183594 1.078124 1.617188c.039063.058594.070313.125.089844.191406.050782-.183594.023438-.386719-.089844-.554688zm0 0" fill="#fff" fill-opacity=".392157"/><path d="m20.917969 11.332031c-.101563.246094-.34375.417969-.625.410157h-4.085938l-1.550781 8.066406c-.132812.691406-1.117188.71875-1.289062.035156l-1.199219-4.792969h-.804688c-.28125.003907-.523437-.167969-.621093-.414062-.03125.078125-.050782.160156-.050782.25 0 .367187.300782.664062.671875.660156h.804688l1.199219 4.792969c.171874.683594 1.15625.65625 1.289062-.035156l1.550781-8.066407h4.085938c.367187.007813.671875-.289062.671875-.660156 0-.085937-.015625-.171875-.046875-.246094zm-.34375 4.621094c-.015625.042969-.039063.085937-.066407.125l-1.078124 1.621094.164062.246093.914062-1.371093c.136719-.195313.144532-.425781.066407-.621094zm-3.882813 0c-.078125.195313-.066406.425781.070313.621094l.914062 1.371093.164063-.246093-1.078125-1.621094c-.027344-.039063-.050781-.082031-.070313-.125zm1.941406 2.9375-.773437 1.160156c-.199219.308594-.613281.394531-.917969.1875-.117187-.074219-.199218-.183593-.246094-.300781-.117187.285156-.023437.621094.246094.796875.304688.207031.71875.121094.917969-.1875l.773437-1.160156.773438 1.160156c.203125.308594.617188.394531.921875.1875.265625-.175781.363281-.511719.246094-.796875-.046875.117188-.128907.226562-.246094.300781-.304687.207031-.71875.121094-.921875-.1875zm0 0" fill-opacity=".235294"/></g><path d="m250.538575-47.703476c-5.062017 0-9.436599 3.56216-10.37401 8.561682l-17.435835 90.616347-9.561586-38.246348c-1.124893-4.749546-5.374487-7.999236-10.249022-8.06173h-21.122983c-5.936933-.062494-10.748973 4.687053-10.748973 10.623986 0 5.874439 4.81204 10.623985 10.748973 10.561491h12.873771l19.185668 76.680177c2.749737 10.936456 18.498233 10.498998 20.623031-.62494l24.81013-128.987682h65.368758c5.874439.124988 10.748973-4.624559 10.748973-10.561492s-4.874534-10.686479-10.748973-10.561491zm26.309987 73.93044c-8.499188.062494-13.498711 9.561587-8.68667 16.560918l17.248353 25.87253-17.248353 25.935023c-3.312184 4.812041-2.062303 11.498902 2.874725 14.748592 4.874535 3.249689 11.498902 1.874821 14.686098-3.062208l12.373818-18.498233 12.373819 18.498233c3.249689 4.937029 9.874057 6.311897 14.748591 3.062208 4.937029-3.24969 6.186909-9.936551 2.874726-14.748592l-17.248353-25.935023 17.248353-25.87253c4.874534-7.124319-.374965-16.810894-8.999141-16.560918-3.499666.124988-6.686861 1.937315-8.624176 4.874534l-12.373819 18.498234-12.373818-18.498234c-1.937315-3.062207-5.311993-4.874534-8.874153-4.874534zm0 0" fill="none" stroke="#212121" stroke-linecap="round" stroke-linejoin="round" stroke-width="3" transform="matrix(.062506 0 0 .062506 0 13.438783)"/></svg>

<?xml version="1.0" encoding="UTF-8"?>
<svg xmlns="http://www.w3.org/2000/svg" xmlns:xlink="http://www.w3.org/1999/xlink" width="32px" height="32px" viewBox="0 0 32 32" version="1.1">
<defs>
<linearGradient id="linear0" gradientUnits="userSpaceOnUse" x1="254" y1="233.5" x2="254" y2="254.666672" gradientTransform="matrix(0.0744119,0,0,0.062506,-2.630336,13.438785)">
<stop offset="0" style="stop-color:rgb(0%,0%,0%);stop-opacity:0.27451;"/>
<stop offset="1" style="stop-color:rgb(0%,0%,0%);stop-opacity:0;"/>
</linearGradient>
<radialGradient id="radial0" gradientUnits="userSpaceOnUse" cx="450.908936" cy="189.579361" fx="450.908936" fy="189.579361" r="21.166656" gradientTransform="matrix(0.00000017417,-0.0781325,-0.140638,-0.000000101539,50.476849,63.595333)">
<stop offset="0" style="stop-color:rgb(0%,0%,0%);stop-opacity:0.313726;"/>
<stop offset="0.222222" style="stop-color:rgb(0%,0%,0%);stop-opacity:0.27451;"/>
<stop offset="1" style="stop-color:rgb(0%,0%,0%);stop-opacity:0;"/>
</radialGradient>
<radialGradient id="radial1" gradientUnits="userSpaceOnUse" cx="450.908936" cy="189.579361" fx="450.908936" fy="189.579361" r="21.166656" gradientTransform="matrix(-0.00000017417,0.0781325,0.140638,0.000000101539,-18.723815,-7.527479)">
<stop offset="0" style="stop-color:rgb(0%,0%,0%);stop-opacity:0.313726;"/>
<stop offset="0.222222" style="stop-color:rgb(0%,0%,0%);stop-opacity:0.27451;"/>
<stop offset="1" style="stop-color:rgb(0%,0%,0%);stop-opacity:0;"/>
</radialGradient>
<radialGradient id="radial2" gradientUnits="userSpaceOnUse" cx="450.908936" cy="189.579361" fx="450.908936" fy="189.579361" r="21.166656" gradientTransform="matrix(-0.00000017417,-0.0781325,0.140638,-0.000000101539,-18.723815,63.595333)">
<stop offset="0" style="stop-color:rgb(0%,0%,0%);stop-opacity:0.313726;"/>
<stop offset="0.222222" style="stop-color:rgb(0%,0%,0%);stop-opacity:0.27451;"/>
<stop offset="1" style="stop-color:rgb(0%,0%,0%);stop-opacity:0;"/>
</radialGradient>
<radialGradient id="radial3" gradientUnits="userSpaceOnUse" cx="450.908936" cy="189.579361" fx="450.908936" fy="189.579361" r="21.166656" gradientTransform="matrix(0.00000017417,0.0781325,-0.140638,0.000000101539,50.476847,-7.527479)">
<stop offset="0" style="stop-color:rgb(0%,0%,0%);stop-opacity:0.313726;"/>
<stop offset="0.222222" style="stop-color:rgb(0%,0%,0%);stop-opacity:0.27451;"/>
<stop offset="1" style="stop-color:rgb(0%,0%,0%);stop-opacity:0;"/>
</radialGradient>
<linearGradient id="linear1" gradientUnits="userSpaceOnUse" x1="254" y1="233.5" x2="254" y2="-168.666672" gradientTransform="matrix(0.062506,0,0,0.062506,0,13.438783)">
<stop offset="0" style="stop-color:rgb(87.843138%,87.843138%,87.843138%);stop-opacity:1;"/>
<stop offset="1" style="stop-color:rgb(93.333334%,93.333334%,93.333334%);stop-opacity:1;"/>
</linearGradient>
<linearGradient id="linear2" gradientUnits="userSpaceOnUse" x1="413.712219" y1="-474.701691" x2="413.712219" y2="-72.535034" gradientTransform="matrix(0.062506,0,0,0.062506,0,13.438783)">
<stop offset="0" style="stop-color:rgb(47.058824%,56.470591%,61.176473%);stop-opacity:1;"/>
<stop offset="1" style="stop-color:rgb(56.470591%,64.313728%,68.235296%);stop-opacity:1;"/>
</linearGradient>
<linearGradient id="linear3" gradientUnits="userSpaceOnUse" x1="243.416672" y1="127.666656" x2="243.416672" y2="-73.416664" gradientTransform="matrix(0.062506,0,0,0.062506,0.260927,13.438798)">
<stop offset="0" style="stop-color:rgb(47.058824%,56.470591%,61.176473%);stop-opacity:1;"/>
<stop offset="1" style="stop-color:rgb(56.470591%,64.313728%,68.235296%);stop-opacity:1;"/>
</linearGradient>
</defs>
<g id="surface1">
<path style=" stroke:none;fill-rule:nonzero;fill:url(#linear0);" d="M 7.609375 28.035156 L 24.144531 28.035156 L 24.144531 29.355469 L 7.609375 29.355469 Z M 7.609375 28.035156 "/>
<path style=" stroke:none;fill-rule:nonzero;fill:url(#radial0);" d="M 24.144531 28.035156 L 26.792969 28.035156 L 26.792969 26.710938 L 24.144531 26.710938 Z M 24.144531 28.035156 "/>
<path style=" stroke:none;fill-rule:nonzero;fill:url(#radial1);" d="M 7.609375 28.035156 L 4.960938 28.035156 L 4.960938 29.355469 L 7.609375 29.355469 Z M 7.609375 28.035156 "/>
<path style=" stroke:none;fill-rule:nonzero;fill:url(#radial2);" d="M 7.609375 28.035156 L 4.960938 28.035156 L 4.960938 26.710938 L 7.609375 26.710938 Z M 7.609375 28.035156 "/>
<path style=" stroke:none;fill-rule:nonzero;fill:url(#radial3);" d="M 24.144531 28.035156 L 26.792969 28.035156 L 26.792969 29.355469 L 24.144531 29.355469 Z M 24.144531 28.035156 "/>
<path style=" stroke:none;fill-rule:nonzero;fill:url(#linear1);" d="M 19.90625 2.894531 L 6.613281 2.894531 C 5.882812 2.894531 5.292969 3.484375 5.292969 4.21875 L 5.292969 26.710938 C 5.292969 27.445312 5.882812 28.035156 6.613281 28.035156 L 25.136719 28.035156 C 25.871094 28.035156 26.460938 27.445312 26.460938 26.710938 L 26.460938 8.90625 Z M 19.90625 2.894531 "/>
<path style=" stroke:none;fill-rule:nonzero;fill:url(#linear2);" d="M 19.90625 2.894531 L 26.460938 8.90625 L 26.460938 4.21875 C 26.460938 3.484375 25.871094 2.894531 25.136719 2.894531 Z M 19.90625 2.894531 "/>
<path style=" stroke:none;fill-rule:nonzero;fill:rgb(0%,0%,0%);fill-opacity:0.235294;" d="M 5.292969 26.378906 L 5.292969 26.710938 C 5.292969 27.445312 5.882812 28.035156 6.613281 28.035156 L 25.136719 28.035156 C 25.871094 28.035156 26.460938 27.445312 26.460938 26.710938 L 26.460938 26.378906 C 26.460938 27.113281 25.871094 27.703125 25.136719 27.703125 L 6.613281 27.703125 C 5.882812 27.703125 5.292969 27.113281 5.292969 26.378906 Z M 5.292969 26.378906 "/>
<path style=" stroke:none;fill-rule:nonzero;fill:rgb(100%,100%,100%);fill-opacity:1;" d="M 6.613281 2.894531 C 5.882812 2.894531 5.292969 3.484375 5.292969 4.21875 L 5.292969 4.878906 C 5.292969 4.148438 5.882812 3.558594 6.613281 3.558594 L 19.90625 3.558594 L 26.460938 9.566406 L 26.460938 8.90625 L 19.90625 2.894531 Z M 6.613281 2.894531 "/>
<path style=" stroke:none;fill-rule:nonzero;fill:rgb(100%,100%,100%);fill-opacity:0.392157;" d="M 19.90625 2.894531 L 20.628906 3.558594 L 25.136719 3.558594 C 25.871094 3.558594 26.460938 4.148438 26.460938 4.878906 L 26.460938 4.21875 C 26.460938 3.484375 25.871094 2.894531 25.136719 2.894531 Z M 19.90625 2.894531 "/>
<path style=" stroke:none;fill-rule:nonzero;fill:rgb(0%,0%,0%);fill-opacity:0.235294;" d="M 19.90625 2.894531 L 26.460938 8.90625 L 26.460938 8.355469 L 20.507812 2.894531 Z M 19.90625 2.894531 "/>
<path style="fill:none;stroke-width:11.338583;stroke-linecap:round;stroke-linejoin:round;stroke:rgb(12.941177%,12.941177%,12.941177%);stroke-opacity:1;stroke-miterlimit:4;" d="M 1203.664647 175.022665 L 399.883094 175.022665 C 355.714081 175.022665 320.048194 210.688553 320.048194 255.093763 L 320.048194 1615.121439 C 320.048194 1659.52665 355.714081 1695.192537 399.883094 1695.192537 L 1519.933674 1695.192537 C 1564.338884 1695.192537 1600.004772 1659.52665 1600.004772 1615.121439 L 1600.004772 538.531278 Z M 1203.664647 175.022665 " transform="matrix(0.016538,0,0,0.016538,0,0)"/>
<path style="fill:none;stroke-width:3;stroke-linecap:round;stroke-linejoin:round;stroke:rgb(12.941177%,12.941177%,12.941177%);stroke-opacity:1;stroke-miterlimit:4;" d="M 318.469588 -168.691922 L 423.334574 -72.513607 L 423.334574 -147.506445 C 423.334574 -159.255323 413.897975 -168.691922 402.149097 -168.691922 Z M 318.469588 -168.691922 " transform="matrix(0.062506,0,0,0.062506,0,13.438783)"/>
<path style=" stroke:none;fill-rule:evenodd;fill:url(#linear3);" d="M 15.660156 10.503906 C 15.34375 10.503906 15.070312 10.730469 15.011719 11.039062 L 13.921875 16.703125 L 13.324219 14.3125 C 13.253906 14.019531 12.988281 13.8125 12.683594 13.8125 L 11.363281 13.8125 C 10.992188 13.808594 10.691406 14.105469 10.691406 14.472656 C 10.691406 14.839844 10.992188 15.140625 11.363281 15.132812 L 12.167969 15.132812 L 13.367188 19.925781 C 13.539062 20.613281 14.523438 20.585938 14.65625 19.890625 L 16.207031 11.828125 L 20.292969 11.828125 C 20.660156 11.832031 20.964844 11.535156 20.964844 11.164062 C 20.964844 10.796875 20.660156 10.496094 20.292969 10.503906 Z M 17.304688 15.128906 C 16.773438 15.128906 16.460938 15.726562 16.761719 16.164062 L 17.839844 17.78125 L 16.761719 19.398438 C 16.554688 19.703125 16.632812 20.117188 16.941406 20.324219 C 17.246094 20.527344 17.660156 20.441406 17.859375 20.132812 L 18.632812 18.972656 L 19.40625 20.132812 C 19.609375 20.441406 20.023438 20.527344 20.328125 20.324219 C 20.636719 20.117188 20.714844 19.703125 20.507812 19.398438 L 19.429688 17.78125 L 20.507812 16.164062 C 20.8125 15.71875 20.484375 15.113281 19.945312 15.128906 C 19.726562 15.132812 19.527344 15.246094 19.40625 15.429688 L 18.632812 16.589844 L 17.859375 15.429688 C 17.738281 15.242188 17.527344 15.125 17.304688 15.128906 Z M 17.304688 15.128906 "/>
<path style=" stroke:none;fill-rule:evenodd;fill:rgb(100%,100%,100%);fill-opacity:0.392157;" d="M 15.660156 10.503906 C 15.34375 10.503906 15.070312 10.730469 15.011719 11.039062 L 13.921875 16.703125 L 13.324219 14.3125 C 13.253906 14.019531 12.988281 13.8125 12.683594 13.8125 L 11.363281 13.8125 C 10.992188 13.808594 10.691406 14.105469 10.691406 14.472656 C 10.691406 14.535156 10.703125 14.597656 10.71875 14.65625 C 10.796875 14.375 11.054688 14.171875 11.363281 14.175781 L 12.683594 14.175781 C 12.988281 14.175781 13.253906 14.382812 13.324219 14.675781 L 13.921875 17.066406 L 15.011719 11.40625 C 15.070312 11.09375 15.34375 10.867188 15.660156 10.867188 L 20.292969 10.867188 C 20.597656 10.863281 20.859375 11.066406 20.941406 11.347656 C 20.957031 11.289062 20.964844 11.230469 20.964844 11.164062 C 20.964844 10.796875 20.660156 10.496094 20.292969 10.503906 Z M 17.304688 15.128906 C 16.847656 15.128906 16.550781 15.570312 16.671875 15.972656 C 16.746094 15.707031 16.984375 15.492188 17.304688 15.492188 C 17.527344 15.492188 17.738281 15.605469 17.859375 15.792969 L 18.632812 16.953125 L 19.40625 15.792969 C 19.527344 15.609375 19.726562 15.496094 19.945312 15.492188 C 20.269531 15.484375 20.519531 15.699219 20.597656 15.972656 C 20.71875 15.5625 20.410156 15.113281 19.945312 15.128906 C 19.726562 15.132812 19.527344 15.246094 19.40625 15.429688 L 18.632812 16.589844 L 17.859375 15.429688 C 17.738281 15.242188 17.527344 15.125 17.304688 15.128906 Z M 17.71875 17.964844 L 16.761719 19.398438 C 16.644531 19.566406 16.617188 19.773438 16.671875 19.953125 C 16.691406 19.886719 16.71875 19.824219 16.761719 19.761719 L 17.839844 18.144531 Z M 19.550781 17.964844 L 19.429688 18.144531 L 20.507812 19.761719 C 20.546875 19.824219 20.578125 19.886719 20.597656 19.953125 C 20.648438 19.773438 20.621094 19.566406 20.507812 19.398438 Z M 19.550781 17.964844 "/>
<path style=" stroke:none;fill-rule:evenodd;fill:rgb(0%,0%,0%);fill-opacity:0.235294;" d="M 20.917969 11.378906 C 20.816406 11.625 20.574219 11.796875 20.292969 11.792969 L 16.207031 11.792969 L 14.65625 19.855469 C 14.523438 20.550781 13.539062 20.578125 13.367188 19.890625 L 12.167969 15.101562 L 11.363281 15.101562 C 11.082031 15.101562 10.839844 14.929688 10.742188 14.6875 C 10.710938 14.761719 10.691406 14.847656 10.691406 14.933594 C 10.691406 15.304688 10.992188 15.601562 11.363281 15.597656 L 12.167969 15.597656 L 13.367188 20.386719 C 13.539062 21.074219 14.523438 21.046875 14.65625 20.351562 L 16.207031 12.289062 L 20.292969 12.289062 C 20.660156 12.296875 20.964844 11.996094 20.964844 11.628906 C 20.964844 11.539062 20.949219 11.457031 20.917969 11.378906 Z M 20.574219 16.003906 C 20.558594 16.046875 20.535156 16.085938 20.507812 16.128906 L 19.429688 17.746094 L 19.59375 17.996094 L 20.507812 16.625 C 20.644531 16.425781 20.652344 16.195312 20.574219 16.003906 Z M 16.691406 16.003906 C 16.613281 16.195312 16.625 16.425781 16.761719 16.625 L 17.675781 17.996094 L 17.839844 17.746094 L 16.761719 16.128906 C 16.734375 16.085938 16.710938 16.046875 16.691406 16.003906 Z M 18.632812 18.9375 L 17.859375 20.097656 C 17.660156 20.40625 17.246094 20.492188 16.941406 20.289062 C 16.824219 20.210938 16.742188 20.105469 16.695312 19.984375 C 16.578125 20.269531 16.671875 20.605469 16.941406 20.785156 C 17.246094 20.988281 17.660156 20.902344 17.859375 20.59375 L 18.632812 19.433594 L 19.40625 20.59375 C 19.609375 20.902344 20.023438 20.988281 20.328125 20.785156 C 20.59375 20.605469 20.691406 20.269531 20.574219 19.984375 C 20.527344 20.105469 20.445312 20.210938 20.328125 20.289062 C 20.023438 20.492188 19.609375 20.40625 19.40625 20.097656 Z M 18.632812 18.9375 "/>
<path style="fill:none;stroke-width:3;stroke-linecap:round;stroke-linejoin:round;stroke:rgb(12.941177%,12.941177%,12.941177%);stroke-opacity:1;stroke-miterlimit:4;" d="M 250.538575 -46.953548 C 245.476558 -46.953548 241.101976 -43.328894 240.164565 -38.391865 L 222.72873 52.224481 L 213.167144 13.978134 C 212.042251 9.291081 207.792657 5.978898 202.918122 5.978898 L 181.795139 5.978898 C 175.858206 5.916404 171.046166 10.66595 171.046166 16.540389 C 171.046166 22.414828 175.858206 27.226868 181.795139 27.10188 L 194.66891 27.10188 L 213.854578 103.782058 C 216.604315 114.781007 232.352811 114.343549 234.477609 103.219612 L 259.287739 -25.768071 L 324.656497 -25.768071 C 330.530936 -25.705577 335.40547 -30.455123 335.40547 -36.392056 C 335.40547 -42.266495 330.530936 -47.078536 324.656497 -46.953548 Z M 276.848562 27.039386 C 268.349374 27.039386 263.349851 36.600973 268.161892 43.600305 L 285.410245 69.472834 L 268.161892 95.345363 C 264.849708 100.219898 266.099589 106.844265 271.036617 110.156449 C 275.911152 113.406139 282.535519 112.03127 285.722715 107.094242 L 298.096533 88.533514 L 310.470352 107.094242 C 313.720041 112.03127 320.344409 113.406139 325.218943 110.156449 C 330.155972 106.844265 331.405852 100.219898 328.093669 95.345363 L 310.845316 69.472834 L 328.093669 43.600305 C 332.968203 36.475985 327.718704 26.78941 319.094528 27.039386 C 315.594862 27.10188 312.407667 28.914207 310.470352 31.851427 L 298.096533 50.412154 L 285.722715 31.851427 C 283.7854 28.851713 280.410722 26.976892 276.848562 27.039386 Z M 276.848562 27.039386 " transform="matrix(0.062506,0,0,0.062506,0,13.438783)"/>
</g>
</svg>
